X: 98
T: No_35_The_Girls_are_Approaching.krn
N: Derived from No_35_The_Girls_are_Approaching.krn
%%abc-version 2.0
%%abcx-abcm2ps-target-version 5.9.1 (29 Sep 2008)
%%abc-creator hum2abc beta
%%abcx-conversion-date 2019/03/15 08:37:56
%%humdrum-veritas 3382989829
%%humdrum-veritas-data 3748106929
%%linebreak <none>
%%barnumbers 0
L: 1/8
M: 2/4
K: G clef=bass
[K:clef=bass][M:2/4]z2G,/G,D/ | 
(3DA,A, (3A,G,A, | 
(3A,G,G, G,3/A,/ ]|:  
[M:3/4](3A,G,A,A,2(3CA,C ||  
[M:2/4](3CG,G, (3G,E,G, ||  
[M:3/4](3G,D,D, D,3/G,/ (3G,E,G, ||  
[M:2/4]G,2z2 | 
G,3/A,/ A,3/A,/ ||  
[M:3/4](3A,G,A, (3A,G,G, G,3/A,/ :|]  



